public/favicon.svg

<?xml version="1.0" encoding="UTF-8" standalone="no"?><!DOCTYPE svg PUBLIC "-//W3C//DTD SVG 1.1//EN" "http://www.w3.org/Graphics/SVG/1.1/DTD/svg11.dtd"><svg width="100%" height="100%" viewBox="0 0 1000 1000" version="1.1" xmlns="http://www.w3.org/2000/svg" xmlns:xlink="http://www.w3.org/1999/xlink" xml:space="preserve" xmlns:serif="http://www.serif.com/" style="fill-rule:evenodd;clip-rule:evenodd;stroke-linejoin:round;stroke-miterlimit:2;"><path d="M1000,250l0,500c0,137.979 -112.021,250 -250,250l-500,0c-137.979,0 -250,-112.021 -250,-250l0,-500c0,-137.979 112.021,-250 250,-250l500,0c137.979,0 250,112.021 250,250Z"/><path d="M676.459,85.3l-2.392,-2.041c-22.646,-18.525 -45.675,-29.045 -69.085,-31.562c-37.461,-2.372 -66.319,5.865 -86.575,24.713c13.665,-13.608 32.71,-21.831 57.135,-24.669c27.563,-4.181 50.698,-0.584 69.406,10.79c44.685,22.836 76.921,64.652 96.708,125.447c26.242,83.998 25.582,192.93 -1.981,326.794c-21.68,119.006 -65.269,221.872 -130.769,308.6c54.187,-67.117 90.143,-132.281 107.87,-195.494c24.846,-104.361 39.739,-191.479 44.681,-261.354c0.616,118.707 -17.649,221.51 -54.796,308.409c-40.672,102.845 -101.058,182.214 -181.157,238.106c-69.402,47.757 -132.929,49.549 -190.581,5.378c-29.445,-23.939 -54.104,-60.566 -73.979,-109.881c-8.786,-22.914 -16.078,-64.029 -21.876,-123.347c-1.786,-74.069 2.119,-137.304 11.715,-189.705c12.094,-59.714 29.082,-117.743 50.965,-174.089c38.778,-94.371 74.476,-155.798 107.094,-184.28c19.349,-17.012 37.797,-23.743 55.344,-20.194c16.593,3.891 31.749,15.395 45.47,34.513c-49.371,-54.98 -100.006,-29.686 -151.904,75.883c-68.301,141.379 -101.639,279.662 -100.014,414.847c1.186,54.146 7.714,104.721 19.584,151.726c-37.443,-175.62 -11.316,-360.389 78.38,-554.305c53.21,-108.901 101.839,-139.742 145.886,-92.523c-2.595,-3.271 -10.309,-8.656 -23.145,-16.156l-16.628,-2.092c-2.934,-0.183 -5.829,-0.007 -8.685,0.528c-13.404,5.739 -21.057,9.625 -22.959,11.661c-24.585,19.409 -48.933,54.574 -73.045,105.496c-60.348,126.023 -90.05,257.866 -89.104,395.528c0.366,39.889 7.186,89.136 20.461,147.74c14.199,38.716 34.202,71.067 60.008,97.051c43.517,41.884 100.884,41.229 172.102,-1.965c69.273,-44.428 124.324,-117.001 165.154,-217.721c42.691,-119.115 64.32,-234.644 64.886,-346.587c-2.69,-107.996 -28.481,-183.735 -77.371,-227.217c-28.617,-24.812 -55.191,-36.635 -79.722,-35.469c-36.87,-1.223 -64.815,10.047 -83.836,33.81c19.326,-27.508 53.868,-39.289 103.629,-35.342c36.188,8.747 67.129,31.47 92.822,68.169c47.235,72.501 61.388,178.715 42.459,318.643c23.627,-172.559 -0.424,-291.838 -72.154,-357.838m-218.175,844.572l-3.211,0.672c-56.723,11.224 -103.644,-8.223 -140.763,-58.34c18.465,26.082 41.28,44.872 68.444,56.37c5.77,2.316 11.699,4.156 17.787,5.52c6.008,0.835 12.023,1.258 18.043,1.271c14.607,-0.262 27.84,-2.093 39.7,-5.493m56.438,-35.482l-2.748,1.62c-9.418,5.467 -18.635,10.263 -27.653,14.389c-6.902,2.527 -11.856,4.202 -14.863,5.026l-2.923,1.162c-2.021,0.565 -4.026,1.09 -6.015,1.575c-11.124,2.557 -20.255,3.975 -27.392,4.254c-8.127,0.481 -16.181,0.226 -24.163,-0.767c18.585,2.876 37.883,1.764 57.894,-3.337l2.869,-1c3.895,-1.029 7.77,-2.173 11.625,-3.432l2.903,-0.968l1.909,-0.925c9.087,-4.953 18.606,-10.819 28.557,-17.597m174.709,-219.325l-1.275,2.993c-23.258,55.408 -52.947,103.848 -89.066,145.32c-33.806,37.951 -71.722,66.513 -113.749,85.685c-37.556,14.577 -70.793,16.286 -99.712,5.128c-30.115,-11.589 -55.976,-37.073 -77.582,-76.449c43.347,77.05 102.177,100.476 176.49,70.279c41.096,-18.883 78.546,-47.356 112.349,-85.42c27.33,-30.613 53.985,-71.606 79.965,-122.979c-6.216,15.519 -11.49,27.788 -15.823,36.809c4.278,-7.557 10.112,-19.184 17.504,-34.879l13.021,-29.892c6.465,-15.596 5.758,-14.461 -2.121,3.404m68.303,-276.415l0.296,-3.244c5.799,-64.629 3.451,-122.09 -7.045,-172.385c-4.81,-23.439 -11.871,-46.105 -21.182,-67.999c-9.878,-20.18 -20.752,-37.248 -32.621,-51.202c12.53,14.743 23.61,32.087 33.242,52.031c9.107,20.831 16.415,44.561 21.923,71.19c5.48,27.767 8.606,55.84 9.379,84.217c0.76,40.693 -0.571,69.824 -3.993,87.391m-9.136,-194.38l-0.566,-2.783c-2.694,-13.041 -6.077,-25.799 -10.151,-38.274c5.569,14.289 10.201,28.882 13.896,43.777c3.005,11.656 5.742,25.618 8.209,41.884c1.666,11.444 2.461,27.918 2.386,49.422c-1.968,-35.446 -6.559,-66.788 -13.773,-94.026" style="fill:#fff;fill-rule:nonzero;"/></svg>

<?xml version="1.0" encoding="UTF-8" standalone="no"?>
<!DOCTYPE svg PUBLIC "-//W3C//DTD SVG 1.1//EN" "http://www.w3.org/Graphics/SVG/1.1/DTD/svg11.dtd">
<svg width="100%" height="100%" viewBox="0 0 1000 1000" version="1.1" xmlns="http://www.w3.org/2000/svg" xmlns:xlink="http://www.w3.org/1999/xlink" xml:space="preserve" xmlns:serif="http://www.serif.com/" style="fill-rule:evenodd;clip-rule:evenodd;stroke-linejoin:round;stroke-miterlimit:2;">
    <path d="M1000,400L1000,600C1000,820.766 820.766,1000 600,1000L400,1000C179.234,1000 0,820.766 0,600L0,400C0,179.234 179.234,0 400,0L600,0C820.766,0 1000,179.234 1000,400Z"/>
    <path d="M676.459,85.3L674.067,83.259C651.421,64.734 628.392,54.214 604.982,51.697C567.521,49.325 538.663,57.562 518.407,76.41C532.072,62.802 551.117,54.579 575.542,51.741C603.105,47.56 626.24,51.157 644.948,62.531C689.633,85.367 721.869,127.183 741.656,187.978C767.898,271.976 767.238,380.908 739.675,514.772C717.995,633.778 674.406,736.644 608.906,823.372C663.093,756.255 699.049,691.091 716.776,627.878C741.622,523.517 756.515,436.399 761.457,366.524C762.073,485.231 743.808,588.034 706.661,674.933C665.989,777.778 605.603,857.147 525.504,913.039C456.102,960.796 392.575,962.588 334.923,918.417C305.478,894.478 280.819,857.851 260.944,808.536C252.158,785.622 244.866,744.507 239.068,685.189C237.282,611.12 241.187,547.885 250.783,495.484C262.877,435.77 279.865,377.741 301.748,321.395C340.526,227.024 376.224,165.597 408.842,137.115C428.191,120.103 446.639,113.372 464.186,116.921C480.779,120.812 495.935,132.316 509.656,151.434C460.285,96.454 409.65,121.748 357.752,227.317C289.451,368.696 256.113,506.979 257.738,642.164C258.924,696.31 265.452,746.885 277.322,793.89C239.879,618.27 266.006,433.501 355.702,239.585C408.912,130.684 457.541,99.843 501.588,147.062C498.993,143.791 491.279,138.406 478.443,130.906L461.815,128.814C458.881,128.631 455.986,128.807 453.13,129.342C439.726,135.081 432.073,138.967 430.171,141.003C405.586,160.412 381.238,195.577 357.126,246.499C296.778,372.522 267.076,504.365 268.022,642.027C268.388,681.916 275.208,731.163 288.483,789.767C302.682,828.483 322.685,860.834 348.491,886.818C392.008,928.702 449.375,928.047 520.593,884.853C589.866,840.425 644.917,767.852 685.747,667.132C728.438,548.017 750.067,432.488 750.633,320.545C747.943,212.549 722.152,136.81 673.262,93.328C644.645,68.516 618.071,56.693 593.54,57.859C556.67,56.636 528.725,67.906 509.704,91.669C529.03,64.161 563.572,52.38 613.333,56.327C649.521,65.074 680.462,87.797 706.155,124.496C753.39,196.997 767.543,303.211 748.614,443.139C772.241,270.58 748.19,151.301 676.46,85.301M458.285,929.873L455.074,930.545C398.351,941.769 351.43,922.322 314.311,872.205C332.776,898.287 355.591,917.077 382.755,928.575C388.525,930.891 394.454,932.731 400.542,934.095C406.55,934.93 412.565,935.353 418.585,935.366C433.192,935.104 446.425,933.273 458.285,929.873M514.723,894.391L511.975,896.011C502.557,901.478 493.34,906.274 484.322,910.4C477.42,912.927 472.466,914.602 469.459,915.426L466.536,916.588C464.515,917.153 462.51,917.678 460.521,918.163C449.397,920.72 440.266,922.138 433.129,922.417C425.002,922.898 416.948,922.643 408.966,921.65C427.551,924.526 446.849,923.414 466.86,918.313L469.729,917.313C473.624,916.284 477.499,915.14 481.354,913.881L484.257,912.913L486.166,911.988C495.253,907.035 504.772,901.169 514.723,894.391M689.432,675.066L688.157,678.059C664.899,733.467 635.21,781.907 599.091,823.379C565.285,861.33 527.369,889.892 485.342,909.064C447.786,923.641 414.549,925.35 385.63,914.192C355.515,902.603 329.654,877.119 308.048,837.743C351.395,914.793 410.225,938.219 484.538,908.022C525.634,889.139 563.084,860.666 596.887,822.602C624.217,791.989 650.872,750.996 676.852,699.623C670.636,715.142 665.362,727.411 661.029,736.432C665.307,728.875 671.141,717.248 678.533,701.553L691.554,671.661C698.019,656.065 697.312,657.2 689.433,675.065M757.736,398.65L758.032,395.406C763.831,330.777 761.483,273.316 750.987,223.021C746.177,199.582 739.116,176.916 729.805,155.022C719.927,134.842 709.053,117.774 697.184,103.82C709.714,118.563 720.794,135.907 730.426,155.851C739.533,176.682 746.841,200.412 752.349,227.041C757.829,254.808 760.955,282.881 761.728,311.258C762.488,351.951 761.157,381.082 757.735,398.649M748.599,204.269L748.033,201.486C745.339,188.445 741.956,175.687 737.882,163.212C743.451,177.501 748.083,192.094 751.778,206.989C754.783,218.645 757.52,232.607 759.987,248.873C761.653,260.317 762.448,276.791 762.373,298.295C760.405,262.849 755.814,231.507 748.6,204.269" style="fill:white;fill-rule:nonzero;"/>
</svg>
